assets/icons/HouseIcon.svg

<svg width="24" height="24" viewBox="0 0 24 24" fill="none" xmlns="http://www.w3.org/2000/svg">
<path d="M21.66 10.25L12.66 2.24996C12.4775 2.08964 12.2429 2.00122 12 2.00122C11.7571 2.00122 11.5225 2.08964 11.34 2.24996L2.34 10.25C2.18703 10.3853 2.07916 10.5642 2.0309 10.7626C1.98263 10.961 1.99627 11.1695 2.07 11.36C2.14252 11.5479 2.2701 11.7095 2.43605 11.8237C2.60199 11.9379 2.79856 11.9994 3 12H4V21C4 21.2652 4.10535 21.5195 4.29289 21.7071C4.48043 21.8946 4.73478 22 5 22H19C19.2652 22 19.5196 21.8946 19.7071 21.7071C19.8946 21.5195 20 21.2652 20 21V12H21C21.2014 11.9994 21.398 11.9379 21.5639 11.8237C21.7299 11.7095 21.8575 11.5479 21.93 11.36C22.0037 11.1695 22.0174 10.961 21.9691 10.7626C21.9208 10.5642 21.813 10.3853 21.66 10.25ZM13 20H11V17C11 16.7347 11.1054 16.4804 11.2929 16.2928C11.4804 16.1053 11.7348 16 12 16C12.2652 16 12.5196 16.1053 12.7071 16.2928C12.8946 16.4804 13 16.7347 13 17V20ZM18 20H15V17C15 16.2043 14.6839 15.4412 14.1213 14.8786C13.5587 14.316 12.7956 14 12 14C11.2043 14 10.4413 14.316 9.87868 14.8786C9.31607 15.4412 9 16.2043 9 17V20H6V12H18V20ZM5.63 9.99996L12 4.33996L18.37 9.99996H5.63Z" fill="#029F59"/>
</svg>

<svg width="24" height="24" fill="none" xmlns="http://www.w3.org/2000/svg"><path d="m21.66 10.25-9-8a1 1 0 0 0-1.32 0l-9 8A1 1 0 0 0 3 12h1v9a1 1 0 0 0 1 1h14a1 1 0 0 0 1-1v-9h1a1 1 0 0 0 .66-1.75ZM13 20h-2v-3a1 1 0 0 1 2 0v3Zm5 0h-3v-3a3 3 0 1 0-6 0v3H6v-8h12v8ZM5.63 10 12 4.34 18.37 10H5.63Z" fill="#029F59"/></svg>
